package/converter/svg/light/line-columns.svg

<svg xmlns="http://www.w3.org/2000/svg" viewBox="0 0 512 512"><!-- Font Awesome Pro 6.0.0-alpha2 by @fontawesome - https://fontawesome.com License - https://fontawesome.com/license (Commercial License) --><path d="M208 432H16C7.156 432 0 439.156 0 448S7.156 464 16 464H208C216.844 464 224 456.844 224 448S216.844 432 208 432ZM496 432H304C295.156 432 288 439.156 288 448S295.156 464 304 464H496C504.844 464 512 456.844 512 448S504.844 432 496 432ZM208 304H16C7.156 304 0 311.156 0 320S7.156 336 16 336H208C216.844 336 224 328.844 224 320S216.844 304 208 304ZM496 304H304C295.156 304 288 311.156 288 320S295.156 336 304 336H496C504.844 336 512 328.844 512 320S504.844 304 496 304ZM208 176H16C7.156 176 0 183.156 0 192S7.156 208 16 208H208C216.844 208 224 200.844 224 192S216.844 176 208 176ZM496 176H304C295.156 176 288 183.156 288 192S295.156 208 304 208H496C504.844 208 512 200.844 512 192S504.844 176 496 176ZM208 48H16C7.156 48 0 55.156 0 64S7.156 80 16 80H208C216.844 80 224 72.844 224 64S216.844 48 208 48ZM304 80H496C504.844 80 512 72.844 512 64S504.844 48 496 48H304C295.156 48 288 55.156 288 64S295.156 80 304 80Z"/></svg>

<svg xmlns="http://www.w3.org/2000/svg" viewBox="0 0 512 512"><!--! Font Awesome Pro 6.6.0 by @fontawesome - https://fontawesome.com License - https://fontawesome.com/license (Commercial License) Copyright 2024 Fonticons, Inc. --><path d="M16 48C7.2 48 0 55.2 0 64s7.2 16 16 16l192 0c8.8 0 16-7.2 16-16s-7.2-16-16-16L16 48zm0 128c-8.8 0-16 7.2-16 16s7.2 16 16 16l192 0c8.8 0 16-7.2 16-16s-7.2-16-16-16L16 176zM0 320c0 8.8 7.2 16 16 16l192 0c8.8 0 16-7.2 16-16s-7.2-16-16-16L16 304c-8.8 0-16 7.2-16 16zM16 432c-8.8 0-16 7.2-16 16s7.2 16 16 16l192 0c8.8 0 16-7.2 16-16s-7.2-16-16-16L16 432zM288 192c0 8.8 7.2 16 16 16l192 0c8.8 0 16-7.2 16-16s-7.2-16-16-16l-192 0c-8.8 0-16 7.2-16 16zM304 48c-8.8 0-16 7.2-16 16s7.2 16 16 16l192 0c8.8 0 16-7.2 16-16s-7.2-16-16-16L304 48zM288 320c0 8.8 7.2 16 16 16l192 0c8.8 0 16-7.2 16-16s-7.2-16-16-16l-192 0c-8.8 0-16 7.2-16 16zm16 112c-8.8 0-16 7.2-16 16s7.2 16 16 16l192 0c8.8 0 16-7.2 16-16s-7.2-16-16-16l-192 0z"/></svg>
